X:1
T:Title
%%score ( 1 2 ) ( 3 4 )
L:1/8
Q:1/4=80
M:6/8
K:G
V:1 treble nm="Grand Piano, Soprano"
V:2 treble 
V:3 bass nm="Choir Pad, Tbilisi, G. C. Stebbins, 1904"
V:4 bass 
V:1
 D/D/D[DG] [DA][GB][Gc] | [GB][FB][FA]- [FA]/[F^G]/ [FA]2 | [FA]/[FB]<[Fc][DF]/ [DF][DF][DE] | %3
w: By~George~Coles~Stebbins,~1901 * * * * * *|||
 D [DB]2- [DB]2- [DB]/ z/ | D/D/D[DG] [DA][GB]>[FA] | [=FB][Ed][Ec]- [Ec]/[EB]/ [Ec]2 | %6
w: |||
 [EG]/[EA]<[DB][B,D]/ [B,D][CA][B,G]- | [B,G]/[CF]/ [B,G]2- [B,G]2- [B,G]/ z/ | %8
w: ||
 [DB]/[DB]<[Fd][FA]/ [FA][FA]G | [FA][GB][EG]- [EG]/[EA]/ [DB]2 | %10
w: ||
 [Gd]/[Gd]/[Fd][FA]- [FA]/[FA]/[G^c][Fd] | z d2- d2- d/ z/ | [Fc]/[Fc]<[GB][GB]/ [GB][GB][GA] | %13
w: |||
 [=FB][Ed][Ec]- [Ec]/[EB]/ [Ec]2 | [EG]/[EA]<[DB][B,D]/ [B,D][CA][B,G]- | %15
w: ||
 [B,G]/[CF]/ [B,G]2- [B,G]3- | [B,G]3 z3 |] %17
w: ||
V:2
 x6 | x6 | x6 | x6 | x6 | x6 | x6 | x6 | x6 | x6 | x6 | [Ge] F2 G A2 | x6 | x6 | x6 | x6 | x6 |] %17
V:3
 [G,B,]/[G,B,]/[G,B,][G,B,] [G,C][G,D][G,E] | [G,D][D,D][D,C]- [D,C]/[D,B,]/ [D,C]2 | %2
 [D,C]/[D,B,]<[D,A,][D,C]/ [D,C][D,C][E,C] | [F,A,] G,2- G,2- G,/ z/ | %4
 [G,B,]/[G,B,]/[G,B,][G,B,] [G,C][G,D]>[G,C] | G,[C,G,][C,G,]- [C,G,]/[C,G,]/ [C,G,]2 | %6
 [C,G,]/[C,G,]<[D,G,][D,G,]/ [D,G,][D,F,][D,G,]- | [D,G,]/[D,A,]/ [G,,G,]2- [G,,G,]2- [G,,G,]/ z/ | %8
 G,/G,<[D,A,][D,C]/ [D,C][D,C][D,B,] | [D,D][G,D][G,C]- [G,C]/[G,C]/ G,2 | %10
 [G,B,]/[G,B,]/A,[A,D]- [A,D]/[A,D]/[A,E][A,D] | [A,^C]DA, B, =C2 | %12
 [D,A,]/[D,D]<[G,D][G,D]/ [G,D][G,D][G,C] | G,[C,G,][C,G,]- [C,G,]/[C,G,]/ [C,G,]2 | %14
 [C,G,]/[C,G,]<[D,G,][D,G,]/ [D,G,][D,F,][D,G,]- | [D,G,]/[D,A,]/ [G,,G,]2- [G,,G,]3- | %16
 [G,,G,]3 z3 |] %17
V:4
 x6 | x6 | x6 | x6 | x6 | x6 | x6 | x6 | x6 | x6 | x6 | z D,2- D,2- D,/ z/ | x6 | x6 | x6 | x6 | %16
 x6 |] %17

